X: 17
T: Rambling Pitchfork, The
Z: JACKB
S: https://thesession.org/tunes/89#setting53402
R: jig
M: 6/8
L: 1/8
K: Dmaj
|:F3 AFF|dFF AFF|G3 ABc|df/e/d cAG|
F3 AFF|dFF AFD|G3 BAG|AFD D3:|
|:d2e fed|ecA ABc|dcd fed|faf gfe|
d2e fed|ecA AFD|G3 BAG|AFD D3:|

